src/assets/icons/reload.svg

<svg width="16" height="16" viewBox="0 0 16 16" fill="none" xmlns="http://www.w3.org/2000/svg">
<g clip-path="url(#clip0_8874_15292)">
<path fill-rule="evenodd" clip-rule="evenodd" d="M7.44526 0.0161487C5.84639 0.123952 4.35102 0.700821 3.0575 1.70878L2.82475 1.89018L2.81555 1.57212C2.80815 1.31553 2.79951 1.2326 2.77091 1.14294C2.64359 0.74396 2.22117 0.487182 1.81234 0.560242C1.45805 0.623555 1.16462 0.917333 1.11078 1.26263C1.10009 1.33116 1.09351 1.91774 1.09361 2.7929C1.0938 4.3374 1.09397 4.34066 1.19033 4.53987C1.24859 4.66031 1.4257 4.84293 1.5476 4.90821C1.73607 5.00916 1.69937 5.00713 3.32379 5.00668C4.24104 5.00641 4.84151 4.99976 4.88894 4.98933C5.11299 4.94003 5.32203 4.78545 5.44893 4.57521C5.59215 4.33794 5.59215 3.96644 5.44893 3.72917C5.35397 3.57187 5.19065 3.42677 5.03427 3.36083C4.90535 3.30646 4.81119 3.29813 4.32081 3.2977L3.82963 3.29729L3.90191 3.23172C4.23127 2.93298 4.77749 2.57707 5.27036 2.34008C6.07718 1.95214 6.78071 1.7736 7.70019 1.7235C8.77339 1.66503 9.84764 1.89419 10.846 2.39457C11.4432 2.69387 11.9249 3.0465 12.4392 3.56081C13.1662 4.28776 13.6409 5.05115 13.9606 6.00733C14.1627 6.61174 14.2405 7.04376 14.2826 7.79658C14.309 8.26725 14.3238 8.32876 14.451 8.49745C14.7144 8.84678 15.1582 8.95408 15.5398 8.7607C15.6539 8.7029 15.8107 8.55349 15.8825 8.43413C16.0005 8.23819 16.0199 8.06126 15.9849 7.5034C15.8865 5.93692 15.3365 4.44106 14.4038 3.20325C14.155 2.87295 13.9867 2.68115 13.6528 2.34724C13.3189 2.01333 13.1271 1.84505 12.7968 1.59618C11.2775 0.451464 9.36475 -0.113283 7.44526 0.0161487ZM0.636066 7.17071C0.349076 7.24799 0.104147 7.49254 0.0302498 7.77558C-0.00452752 7.90883 -0.00846006 8.1212 0.0167766 8.50526C0.130324 10.2343 0.75765 11.7986 1.88113 13.1543C2.06368 13.3746 2.62542 13.9363 2.84573 14.1189C4.05695 15.1226 5.4494 15.7363 6.9578 15.9312C9.13217 16.212 11.2389 15.6291 12.9742 14.2666L13.1815 14.1039V14.3306C13.1815 14.7493 13.2212 14.919 13.3628 15.1057C13.682 15.5261 14.2788 15.5678 14.651 15.1956C14.7775 15.0692 14.8663 14.8964 14.8917 14.7273C14.9035 14.6487 14.908 14.1058 14.9047 13.1457L14.8998 11.6839L14.86 11.5737C14.7604 11.2977 14.5366 11.0879 14.2666 11.0176C14.1799 10.995 13.9602 10.9914 12.6829 10.9914C11.6419 10.9914 11.1728 10.9972 11.1092 11.0108C10.8483 11.0666 10.5922 11.2867 10.4949 11.5385C10.444 11.6705 10.4322 11.9206 10.47 12.0686C10.545 12.3624 10.8112 12.6171 11.1126 12.6834C11.1549 12.6927 11.4106 12.7005 11.6807 12.7008L12.1719 12.7012L12.0996 12.7668C11.8073 13.0319 11.2684 13.3921 10.8498 13.602C10.0071 14.0246 9.24838 14.2249 8.30138 14.2745C7.21767 14.3313 6.15479 14.1047 5.15555 13.6039C4.55859 13.3047 4.07708 12.9523 3.56213 12.4377C2.8361 11.7121 2.36112 10.9482 2.04086 9.99116C1.83768 9.38393 1.76086 8.95694 1.71866 8.20016C1.69356 7.74999 1.67971 7.68529 1.57641 7.53599C1.44078 7.33999 1.25283 7.20851 1.04189 7.16211C0.933401 7.13824 0.74151 7.14231 0.636066 7.17071Z" fill="currentColor"/>
</g>
<defs>
<clipPath id="clip0_8874_15292">
<rect width="16" height="16" fill="white" transform="translate(0 -0.000762939)"/>
</clipPath>
</defs>
</svg>

<svg xmlns="http://www.w3.org/2000/svg" width="16" height="16" fill="none">
  <g clip-path="url(#a)">
    <path fill="currentColor" fill-rule="evenodd" d="M7.445.016A7.94 7.94 0 0 0 3.057 1.71l-.232.181-.01-.318c-.007-.256-.015-.34-.044-.43A.866.866 0 0 0 1.812.56a.875.875 0 0 0-.701.703c-.01.068-.017.655-.017 1.53 0 1.544 0 1.548.096 1.747.059.12.236.303.358.368.188.101.151.1 1.776.099.917 0 1.518-.007 1.565-.018a.899.899 0 0 0 .56-.414.887.887 0 0 0 0-.846.96.96 0 0 0-.415-.368c-.129-.055-.223-.063-.713-.063H3.83l.072-.066c.33-.299.875-.655 1.368-.892.807-.388 1.51-.566 2.43-.616a6.24 6.24 0 0 1 3.146.67 5.88 5.88 0 0 1 1.593 1.167 6.013 6.013 0 0 1 1.522 2.446c.202.605.28 1.037.322 1.79.026.47.04.532.168.7a.857.857 0 0 0 1.089.264c.114-.058.27-.208.343-.327.117-.196.137-.373.102-.93a7.973 7.973 0 0 0-1.581-4.3 7.02 7.02 0 0 0-.751-.857 7.024 7.024 0 0 0-.856-.75A8.023 8.023 0 0 0 7.445.016ZM.636 7.171a.88.88 0 0 0-.606.605c-.035.133-.038.345-.013.73.113 1.728.74 3.293 1.864 4.648.183.22.744.782.965.965 1.21 1.004 2.603 1.617 4.112 1.812 2.174.281 4.28-.302 6.016-1.664l.207-.163v.227c0 .418.04.588.182.775a.849.849 0 0 0 1.288.09.865.865 0 0 0 .24-.469c.012-.078.017-.621.014-1.581l-.005-1.462-.04-.11a.877.877 0 0 0-.593-.556c-.087-.023-.307-.027-1.584-.027-1.041 0-1.51.006-1.574.02a.904.904 0 0 0-.614.528 1.063 1.063 0 0 0-.025.53.882.882 0 0 0 .643.614c.042.01.298.018.568.018h.49l-.071.066a6.502 6.502 0 0 1-1.25.835 6.052 6.052 0 0 1-2.549.672 6.231 6.231 0 0 1-3.145-.67 5.886 5.886 0 0 1-1.594-1.166A6.014 6.014 0 0 1 2.041 9.99c-.203-.607-.28-1.034-.322-1.79-.025-.451-.04-.516-.143-.665a.886.886 0 0 0-.534-.374 1.06 1.06 0 0 0-.406.009Z" clip-rule="evenodd"/>
  </g>
  <defs>
    <clipPath id="a">
      <path fill="#fff" d="M0 0h16v16H0z"/>
    </clipPath>
  </defs>
</svg>
